X:220
T:Sleeping Giant Two-Step
C:Andy De Jarlis
M:2/4
L:1/8
Z:abc by Bruce Osborne - bosborne@kos.net
K:D
Ad|f3/2g/ fd|A z F z|GG/G/ GF|E3 F|!
GG/G/ GF|EA, DE|F3/2G/ FE|F2 Ad|!
f3/2g/ fd|A z F z|GG/G/ GF|E3 F|!
GG/G/ GA|c3/2A/ Bc|d2 d3/2d/|d2:|!
|:c=c|B2 d2|g3 g|f3/2g/ fd|AF Ad|!
e2 e3/2f/|ec BA|dd FG|Ad c=c|!
B2 d2|g3 g|f3/2g/ fd|AF GF|!
E3 F|G3/2A/ Bc|d2 d3/2d/|d2:|!
